X: 157
T: Short Grass
T: Jig, C
L: 1/16
M: 6/8
K: C
|: B2| c2G2E2 c2G2E2| E2D2E2 C2E2G2| c2G2E2 c2G2E2| D2d2d2 d2e2d2| c2G2E2 c2G2E2| E2D2E2 C2E2G2| c2e2e2 e4d2| c2A2A2 A4:| 
|: f2| g2a2g2 g2e2d2| e2c2c2 c2e2g2| a2b2a2 a2g2e2| f2d2d2 d2e2f2| g2a2g2 g2e2d2| e2c2c2 c2d2e2| f2e2d2 e4d2| c2A2A2 A4:| 
D: Wendy MacIsaac, That's What You Get, WMT004
